images_sukapura_svg/cmd/sc_insertpagenumberfield.svg

<svg viewBox="0 0 16 16" xmlns="http://www.w3.org/2000/svg" xmlns:xlink="http://www.w3.org/1999/xlink"><linearGradient id="a" gradientUnits="userSpaceOnUse" x1="82.58873" x2="83" y1="8.869218" y2="-2"><stop offset="0" stop-color="#0040dd"/><stop offset="1" stop-color="#0a84ff"/></linearGradient><linearGradient id="b" gradientUnits="userSpaceOnUse" x1="10" x2="11.500001" y1="4" y2="2.499999"><stop offset="0" stop-color="#fff"/><stop offset=".77967989" stop-color="#f1f1f1"/><stop offset="1" stop-color="#d5d5d5"/></linearGradient><radialGradient id="c" cx="10.994179" cy="4.42844" gradientTransform="matrix(1.4 .00000004 -.00000001 1.2 -4.39185 -2.314129)" gradientUnits="userSpaceOnUse" r="5"><stop offset="0" stop-color="#d7d7d7"/><stop offset=".49894297" stop-color="#f7f7f7"/><stop offset="1" stop-color="#fff"/></radialGradient><path d="m3 1v14h10v-11.2949219l-2.695312-2.7050781z" fill="url(#c)"/><path d="m3 0c-.554 0-1 .446-1 1v14c0 .554.446 1 1 1h10c.554 0 1-.446 1-1v-10.5-.8632812l-3.636719-3.6367188h-.863281zm0 1h6v3.5c0 .277.223.5.5.5h3.5v10h-10zm7 0 3 3h-3z" fill="#98989d"/><path d="m10 1 3 3h-3z" fill="url(#b)"/><path d="m8 4c-1.0907028 0-2 .9092972-2 2-1.0907028 0-2 .9092972-2 2s.9092972 2 2 2v1c-1.0907028 0-2 .909297-2 2s.9092972 2 2 2c0 .363969.1077387.703481.2832031 1h3.4335938c.1754644-.296519.2832031-.636031.2832031-1h.259766.740234c0 .363969.107739.703481.283203 1h1.716797c.554 0 1-.446 1-1v-10.5-.2167969c-.296519-.1754644-.636031-.2832031-1-.2832031-.164838 0-.323086.0270463-.476562.0664062-.040461.0102521-.079641.0243834-.119141.0371094-.122041.0399117-.240724.0883976-.351563.1503906-.02737.015112-.055431.0285839-.082031.0449219-.279652.1740247-.516737.4133404-.685547.6972657-.0008.0012399-.001222.0026762-.001953.0039062-.175464.2965194-.283203.6360307-.283203 1h-1c0-.3639693-.1077394-.7034813-.2832031-1-.00073-.00124-.0012175-.0026662-.0019531-.0039062-.1740111-.2926502-.4182875-.5369264-.7109376-.7109376-.00126-.00074-.0026562-.0012109-.0039062-.0019531-.2965194-.1754644-.6360307-.2832031-1-.2832031zm2 6h1v1h-1z" fill="#fff" fill-opacity=".784314"/><path d="m8 5c-.554 0-1 .446-1 1v1h-1c-.554 0-1 .446-1 1s.446 1 1 1h1v3h-1c-.554 0-1 .446-1 1s.446 1 1 1h1v1c0 .554.446 1 1 1s1-.446 1-1v-1h3v1c0 .554.446 1 1 1s1-.446 1-1v-1h1c.554 0 1-.446 1-1s-.446-1-1-1h-1v-3h1c.554 0 1-.446 1-1s-.446-1-1-1h-1v-1c0-.554-.446-1-1-1s-1 .446-1 1v1h-3v-1c0-.554-.446-1-1-1zm1 4h3v3h-3z" fill="url(#a)"/></svg>

<?xml version="1.0" encoding="UTF-8" standalone="no"?>
<svg
   xmlns:dc="http://purl.org/dc/elements/1.1/"
   xmlns:cc="http://creativecommons.org/ns#"
   xmlns:rdf="http://www.w3.org/1999/02/22-rdf-syntax-ns#"
   xmlns:svg="http://www.w3.org/2000/svg"
   xmlns="http://www.w3.org/2000/svg"
   xmlns:xlink="http://www.w3.org/1999/xlink"
   xmlns:sodipodi="http://sodipodi.sourceforge.net/DTD/sodipodi-0.dtd"
   xmlns:inkscape="http://www.inkscape.org/namespaces/inkscape"
   viewBox="0 0 16 16"
   version="1.1"
   id="svg22"
   sodipodi:docname="sc_insertpagenumberfield.svg"
   inkscape:version="0.92.3 (unknown)">
  <metadata
     id="metadata28">
    <rdf:RDF>
      <cc:Work
         rdf:about="">
        <dc:format>image/svg+xml</dc:format>
        <dc:type
           rdf:resource="http://purl.org/dc/dcmitype/StillImage" />
        <dc:title></dc:title>
      </cc:Work>
    </rdf:RDF>
  </metadata>
  <defs
     id="defs26">
    <linearGradient
       gradientTransform="translate(75,-7)"
       id="a-367"
       gradientUnits="userSpaceOnUse"
       x1="14"
       x2="13.79661"
       y1="22"
       y2="2.1355929">
      <stop
         offset="0"
         stop-color="#0040dd"
         id="stop2206" />
      <stop
         offset="1"
         stop-color="#0a84ff"
         id="stop2208" />
    </linearGradient>
    <linearGradient
       inkscape:collect="always"
       xlink:href="#a-367"
       id="linearGradient2133"
       x1="7.5887299"
       y1="15.869218"
       x2="8"
       y2="5"
       gradientUnits="userSpaceOnUse" />
  </defs>
  <sodipodi:namedview
     pagecolor="#ffffff"
     bordercolor="#666666"
     borderopacity="1"
     objecttolerance="10"
     gridtolerance="10"
     guidetolerance="10"
     inkscape:pageopacity="0"
     inkscape:pageshadow="2"
     inkscape:window-width="1366"
     inkscape:window-height="706"
     id="namedview24"
     showgrid="false"
     inkscape:zoom="10.429825"
     inkscape:cx="8.0395725"
     inkscape:cy="-3.421728"
     inkscape:window-x="0"
     inkscape:window-y="0"
     inkscape:window-maximized="1"
     inkscape:current-layer="svg22" />
  <linearGradient
     id="a"
     gradientUnits="userSpaceOnUse"
     x1="10"
     x2="11.5000006"
     y1="4"
     y2="2.4999994">
    <stop
       offset="0"
       stop-color="#fff"
       id="stop2" />
    <stop
       offset=".77967989"
       stop-color="#f1f1f1"
       id="stop4" />
    <stop
       offset="1"
       stop-color="#d5d5d5"
       id="stop6" />
  </linearGradient>
  <radialGradient
     id="b"
     cx="10.994179"
     cy="4.42844"
     gradientTransform="matrix(1.4 .00000004 -.00000001 1.2 -4.39185 -2.314129)"
     gradientUnits="userSpaceOnUse"
     r="5">
    <stop
       offset="0"
       stop-color="#d7d7d7"
       id="stop9" />
    <stop
       offset=".49894297"
       stop-color="#f7f7f7"
       id="stop11" />
    <stop
       offset="1"
       stop-color="#fff"
       id="stop13" />
  </radialGradient>
  <g
     id="g838">
    <path
       id="path16"
       d="m3 1v14h10v-11.2949219l-2.695312-2.7050781z"
       fill="url(#b)" />
    <path
       id="path18"
       d="m3 0c-.554 0-1 .446-1 1v14c0 .554.446 1 1 1h10c.554 0 1-.446 1-1v-10.5-.8632812l-3.636719-3.6367188h-.863281zm0 1h6v3.5c0 .277.223.5.5.5h3.5v10h-10zm7 0 3 3h-3z"
       fill="#98989d" />
    <path
       id="path20"
       d="m10 1 3 3h-3z"
       fill="url(#a)" />
  </g>
  <path
     style="fill:#ffffff;fill-opacity:0.78431374"
     d="M 8 4 C 6.9092972 4 6 4.9092972 6 6 C 4.9092972 6 4 6.9092972 4 8 C 4 9.0907028 4.9092972 10 6 10 L 6 11 C 4.9092972 11 4 11.909297 4 13 C 4 14.090703 4.9092972 15 6 15 C 6 15.363969 6.1077387 15.703481 6.2832031 16 L 9.7167969 16 C 9.8922613 15.703481 10 15.363969 10 15 L 10.259766 15 L 11 15 C 11 15.363969 11.107739 15.703481 11.283203 16 L 13 16 C 13.554 16 14 15.554 14 15 L 14 4.5 L 14 4.2832031 C 13.703481 4.1077387 13.363969 4 13 4 C 12.835162 4 12.676914 4.0270463 12.523438 4.0664062 C 12.482977 4.0766583 12.443797 4.0907896 12.404297 4.1035156 C 12.282256 4.1434273 12.163573 4.1919132 12.052734 4.2539062 C 12.025364 4.2690182 11.997303 4.2824901 11.970703 4.2988281 C 11.691051 4.4728528 11.453966 4.7121685 11.285156 4.9960938 C 11.284356 4.9973337 11.283934 4.99877 11.283203 5 C 11.107739 5.2965194 11 5.6360307 11 6 L 10 6 C 10 5.6360307 9.8922606 5.2965187 9.7167969 5 C 9.7160669 4.99876 9.7155794 4.9973338 9.7148438 4.9960938 C 9.5408327 4.7034436 9.2965563 4.4591674 9.0039062 4.2851562 C 9.0026462 4.2844162 9.00125 4.2839453 9 4.2832031 C 8.7034806 4.1077387 8.3639693 4 8 4 z M 10 10 L 11 10 L 11 11 L 10 11 L 10 10 z "
     id="path1478" />
  <path
     inkscape:connector-curvature="0"
     style="fill:url(#linearGradient2133);fill-opacity:1"
     d="M 8,5 C 7.446,5 7,5.446 7,6 V 7 H 6 C 5.446,7 5,7.446 5,8 5,8.554 5.446,9 6,9 h 1 v 3 H 6 c -0.554,0 -1,0.446 -1,1 0,0.554 0.446,1 1,1 h 1 v 1 c 0,0.554 0.446,1 1,1 0.554,0 1,-0.446 1,-1 v -1 h 3 v 1 c 0,0.554 0.446,1 1,1 0.554,0 1,-0.446 1,-1 v -1 h 1 c 0.554,0 1,-0.446 1,-1 0,-0.554 -0.446,-1 -1,-1 H 14 V 9 h 1 C 15.554,9 16,8.554 16,8 16,7.446 15.554,7 15,7 H 14 V 6 C 14,5.446 13.554,5 13,5 12.446,5 12,5.446 12,6 V 7 H 9 V 6 C 9,5.446 8.554,5 8,5 Z m 1,4 h 3 v 3 H 9 Z"
     id="path6" />
</svg>
